X:138
U: ~ = !turn!
%%topmargin 3cm
T:Munster Buttermilk
B:Traditional Irish Fiddle Tunes. Randy Miller and Jack Perron.
Z:Transcribed by Ralph Palmer
R:Jig
M:6/8
L:1/8
K:G
d | gfg age | Pd2B {/c}BAB | Pd2 B {/c}BAB | dBG G2d |
gfg age | Pd2B {/c}BAB | dBG GAB | [1 A3 G2 ::
z | d2 e g2 a | b2 b bag | a2 a age | g2 g age |
d2 e g2 a | b2 b bag | age dgb | Ja3 g2 :|
